X: 1
T: Breakdown
R: Reel
C: Trad
r: 32
Z: JH
M: 4/4
L: 1/8
K: Amaj
|:"E7" e2|"A" a2A2 AcBA|"A" E2A2 AcBA|"Bm" F2B2 BcBA|"E7" GABc defg|
"A" a2A2 AcBA|"A" E2A2 AcBA|"Bm" GABc "E7" defg| "A" aece A2:|
|cB|"A" A2a2 A2a2|"A" A2AB cB A2|"E7" E2e2 E2e2|"E7" E2Bc dc B2|
"A" A2a2 A2a2|"A" A2AB cB A2|"E7" E2Bc edcB|"A" A2c2 A2:|
